svg/u1f467_1f3fb.svg

<svg viewBox="0 0 128 128" xmlns="http://www.w3.org/2000/svg">
  <g id="hairGroup">
    <path id="hair_2_" d="M16.53,123.82l1.58-7.48l-13.79,3.44c0,0-0.97-13.3,10.9-20.98 c13.01-8.42,27.99,0.55,27.99,0.55s-1.47,10.04-10.38,18.69C26.83,123.85,16.53,123.82,16.53,123.82z" fill="#312D2D"/>
    <path id="hair" d="M111.47,123.82l-1.58-7.48l13.79,3.44c0,0,0.97-13.3-10.9-20.98 c-13.01-8.42-27.99,0.55-27.99,0.55s1.47,10.04,10.38,18.69C101.17,123.85,111.47,123.82,111.47,123.82z" fill="#312D2D"/>
    <g id="hairHighlights">
      <radialGradient id="SVGID_1_" cx="22.7259" cy="18.4924" gradientTransform="matrix(0.8903 -0.4554 -0.2657 -0.5195 7.4017 129.4591)" gradientUnits="userSpaceOnUse" r="23.0201">
        <stop offset="0.5255" stop-color="#454140" stop-opacity="0"/>
        <stop offset="1" stop-color="#454140"/>
      </radialGradient>
      <path d="M16.53,123.82l1.58-7.48l-13.79,3.44c0,0-0.97-13.3,10.9-20.98 c13.01-8.42,27.99,0.55,27.99,0.55s-1.47,10.04-10.38,18.69C26.83,123.85,16.53,123.82,16.53,123.82z" fill="url(#SVGID_1_)"/>
      <radialGradient id="SVGID_2_" cx="13.5301" cy="8.4809" gradientTransform="matrix(0.8381 -0.5456 -0.2765 -0.4247 4.5399 130.5066)" gradientUnits="userSpaceOnUse" r="15.4297">
        <stop offset="0" stop-color="#454140"/>
        <stop offset="0.6985" stop-color="#454140" stop-opacity="0"/>
      </radialGradient>
      <path d="M16.53,123.82l1.58-7.48l-13.79,3.44c0,0-0.97-13.3,10.9-20.98 c13.01-8.42,26.52,10.59,17.61,19.24C26.83,123.85,16.53,123.82,16.53,123.82z" fill="url(#SVGID_2_)"/>
      <radialGradient id="SVGID_3_" cx="37.5842" cy="18.4924" gradientTransform="matrix(-0.8903 -0.4554 0.2657 -0.5195 133.8266 136.2254)" gradientUnits="userSpaceOnUse" r="23.0201">
        <stop offset="0.5255" stop-color="#454140" stop-opacity="0"/>
        <stop offset="1" stop-color="#454140"/>
      </radialGradient>
      <path d="M111.47,123.82l-1.58-7.48l13.79,3.44c0,0,0.97-13.3-10.9-20.98 c-13.01-8.42-27.99,0.55-27.99,0.55s1.47,10.04,10.38,18.69C101.17,123.85,111.47,123.82,111.47,123.82z" fill="url(#SVGID_3_)"/>
      <radialGradient id="SVGID_4_" cx="28.3884" cy="8.4809" gradientTransform="matrix(-0.8381 -0.5456 0.2765 -0.4247 135.9121 138.6132)" gradientUnits="userSpaceOnUse" r="15.4297">
        <stop offset="0" stop-color="#454140"/>
        <stop offset="0.6985" stop-color="#454140" stop-opacity="0"/>
      </radialGradient>
      <path d="M111.47,123.82l-1.58-7.48l13.79,3.44c0,0,0.97-13.3-10.9-20.98 c-13.01-8.42-26.52,10.59-17.61,19.24C101.17,123.85,111.47,123.82,111.47,123.82z" fill="url(#SVGID_4_)"/>
    </g>
  </g>
  <path id="ears" d="M26.79,94.84c-7.33,0-13.29-5.71-13.29-12.73s5.96-12.73,13.29-12.73h75.43 c7,0,12.29,5.47,12.29,12.73s-5.28,12.73-12.29,12.73H26.79z" fill="#EDC391"/>
  <path id="head" d="M64,122.43c-18.05,0-43.46-16.17-43.46-52.12c0-33.44,19.09-59.64,43.46-59.64 s43.46,26.2,43.46,59.64C107.46,106.26,82.05,122.43,64,122.43z" fill="#F9DDBD"/>
  <path id="nose_1_" d="M69.07,87.09c-0.14-0.06-0.28-0.09-0.42-0.11h-9.3c-0.14,0.02-0.28,0.05-0.42,0.11 c-0.84,0.34-1.31,1.22-0.91,2.14c0.4,0.93,2.25,3.54,5.98,3.54s5.58-2.61,5.98-3.54C70.38,88.31,69.92,87.43,69.07,87.09z" fill="#DBA689"/>
  <g id="eyebrows_1_">
    <path d="M32.45,68.38c4.07-5.82,13.42-6.04,18.48-1.5c0.98,0.88,2.25,2.17,1.61,3.61 c-0.58,1.31-1.96,1.37-3.12,0.92c-3.24-1.25-6.42-1.97-9.9-1.34c-0.9,0.16-1.77,0.42-2.63,0.7c-0.69,0.22-1.31,0.62-2,0.83 C33,72.19,31.32,70.08,32.45,68.38z" fill="#454140"/>
    <path d="M93.01,71.54c-2.87-1.27-5.86-2.01-9.02-1.65c-1.7,0.19-3.34,0.66-4.92,1.31 c-1.08,0.45-2.3,0.86-3.22-0.17c-2.41-2.68,3.32-5.81,5.2-6.52c3.55-1.34,7.66-1.01,10.98,0.79c1.39,0.75,2.96,1.85,3.68,3.3 C96.57,70.32,94.81,72.27,93.01,71.54z" fill="#454140"/>
  </g>
  <g id="eyes_1_">
    <ellipse cx="42.4" cy="80.3" fill="#312D2D" rx="6.48" ry="6.71"/>
    <ellipse cx="85.6" cy="80.3" fill="#312D2D" rx="6.48" ry="6.71"/>
  </g>
  <path id="mouth_1_" d="M75.01,97.97c-4.19,2.49-17.91,2.49-22.1,0c-2.4-1.43-4.86,0.76-3.86,2.94 c0.98,2.15,8.47,7.13,14.95,7.13c6.47,0,13.87-4.98,14.85-7.13C79.84,98.72,77.42,96.54,75.01,97.97z" fill="#444444"/>
  <g id="hair_1_">
    <path id="hair_3_" d="M103.86,18.49c-5.97-6.22-11.63-8.85-12.18-8.92C84.75,6.4,75.83,3.99,64.26,3.99 c-50.85,0-54.38,41.63-52.33,59.88c1.8,16.09,11.49,20.12,11.49,20.12l-1.38-15.82c0,0,18.2-4.79,27.8-12.22 s14.03-13.79,14.03-13.79s3.24,4.8,13.91,13.67s28.26,12.59,28.26,12.59l0.07,15.53c0,0,8.46-3.94,9.88-20.07 C117.75,43.67,115.33,31.58,103.86,18.49z" fill="#312D2D"/>
    <radialGradient id="hairHighlights_2_" cx="64.0188" cy="74.01" gradientTransform="matrix(0.9998 0.0195 0.019 -0.9735 -1.3922 124.7851)" gradientUnits="userSpaceOnUse" r="51.6642">
      <stop offset="0.6985" stop-color="#454140" stop-opacity="0"/>
      <stop offset="1" stop-color="#454140"/>
    </radialGradient>
    <path id="hairHighlights_1_" d="M103.86,18.49c-5.97-6.22-11.63-8.85-12.18-8.92 C84.75,6.4,75.83,3.99,64.26,3.99c-50.85,0-54.38,41.63-52.33,59.88c1.8,16.09,11.49,20.12,11.49,20.12l-1.38-15.82 c0,0,18.2-4.79,27.8-12.22s14.03-13.79,14.03-13.79s3.24,4.8,13.91,13.67s28.26,12.59,28.26,12.59l0.07,15.53 c0,0,8.46-3.94,9.88-20.07C117.75,43.67,115.33,31.58,103.86,18.49z" fill="url(#hairHighlights_2_)"/>
  </g>
</svg>

<svg viewBox="0 0 128 128" xmlns="http://www.w3.org/2000/svg">
  <defs>
    <radialGradient id="hairHighlights_2_" cx="65.061868" cy="-54.151027" gradientTransform="matrix(0.9998 0.0195 0.019 -0.9735 0 0)" gradientUnits="userSpaceOnUse" r="51.6642">
      <stop offset="0.6985" stop-color="#454140" stop-opacity="0"/>
      <stop offset="1" stop-color="#454140"/>
    </radialGradient>
    <radialGradient id="SVGID_1_" cx="-29.633214" cy="-184.808388" gradientTransform="matrix(0.8903 -0.4554 -0.2657 -0.5195 0 0)" gradientUnits="userSpaceOnUse" r="23.0201">
      <stop offset="0.5255" stop-color="#454140" stop-opacity="0"/>
      <stop offset="1" stop-color="#454140"/>
    </radialGradient>
    <radialGradient id="SVGID_2_" cx="-53.867325" cy="-212.226811" gradientTransform="matrix(0.8381 -0.5456 -0.2765 -0.4247 0 0)" gradientUnits="userSpaceOnUse" r="15.4297">
      <stop offset="0" stop-color="#454140"/>
      <stop offset="0.6985" stop-color="#454140" stop-opacity="0"/>
    </radialGradient>
    <radialGradient id="SVGID_3_" cx="-143.591604" cy="-84.910755" gradientTransform="matrix(-0.8903 -0.4554 0.2657 -0.5195 0 0)" gradientUnits="userSpaceOnUse" r="23.0201">
      <stop offset="0.5255" stop-color="#454140" stop-opacity="0"/>
      <stop offset="1" stop-color="#454140"/>
    </radialGradient>
    <radialGradient id="SVGID_4_" cx="-161.131172" cy="-74.427792" gradientTransform="matrix(-0.8381 -0.5456 0.2765 -0.4247 0 0)" gradientUnits="userSpaceOnUse" r="15.4297">
      <stop offset="0" stop-color="#454140"/>
      <stop offset="0.6985" stop-color="#454140" stop-opacity="0"/>
    </radialGradient>
  </defs>
  <path id="hair_2_" d="M16.53,123.82 L18.11,116.34 L4.32,119.78 C4.32,119.78 3.35,106.48 15.22,98.8 C28.23,90.38 43.21,99.35 43.21,99.35 C43.21,99.35 41.74,109.39 32.83,118.04 C26.83,123.85 16.53,123.82 16.53,123.82 Z" fill="#312D2D"/>
  <path id="hair" d="M111.47,123.82 L109.89,116.34 L123.68,119.78 C123.68,119.78 124.65,106.48 112.78,98.8 C99.77,90.38 84.79,99.35 84.79,99.35 C84.79,99.35 86.26,109.39 95.17,118.04 C101.17,123.85 111.47,123.82 111.47,123.82 Z" fill="#312D2D"/>
  <path d="M16.53,123.82 L18.11,116.34 L4.32,119.78 C4.32,119.78 3.35,106.48 15.22,98.8 C28.23,90.38 43.21,99.35 43.21,99.35 C43.21,99.35 41.74,109.39 32.83,118.04 C26.83,123.85 16.53,123.82 16.53,123.82 Z" fill="url(#SVGID_1_)"/>
  <path d="M16.53,123.82 L18.11,116.34 L4.32,119.78 C4.32,119.78 3.35,106.48 15.22,98.8 C28.23,90.38 41.74,109.39 32.83,118.04 C26.83,123.85 16.53,123.82 16.53,123.82 Z" fill="url(#SVGID_2_)"/>
  <path d="M111.47,123.82 L109.89,116.34 L123.68,119.78 C123.68,119.78 124.65,106.48 112.78,98.8 C99.77,90.38 84.79,99.35 84.79,99.35 C84.79,99.35 86.26,109.39 95.17,118.04 C101.17,123.85 111.47,123.82 111.47,123.82 Z" fill="url(#SVGID_3_)"/>
  <path d="M111.47,123.82 L109.89,116.34 L123.68,119.78 C123.68,119.78 124.65,106.48 112.78,98.8 C99.77,90.38 86.26,109.39 95.17,118.04 C101.17,123.85 111.47,123.82 111.47,123.82 Z" fill="url(#SVGID_4_)"/>
  <path id="ears" d="M26.79,94.84 C19.46,94.84 13.5,89.13 13.5,82.11 C13.5,75.09 19.46,69.38 26.79,69.38 L102.22,69.38 C109.22,69.38 114.51,74.85 114.51,82.11 C114.51,89.37 109.23,94.84 102.22,94.84 L26.79,94.84 Z" fill="#EDC391"/>
  <path id="head" d="M64,122.43 C45.95,122.43 20.54,106.26 20.54,70.31 C20.54,36.87 39.63,10.67 64,10.67 C88.37,10.67 107.46,36.87 107.46,70.31 C107.46,106.26 82.05,122.43 64,122.43 Z" fill="#F9DDBD"/>
  <path id="nose_1_" d="M69.07,87.09 C68.93,87.03 68.79,87 68.65,86.98 L59.35,86.98 C59.21,87 59.07,87.03 58.93,87.09 C58.09,87.43 57.62,88.31 58.02,89.23 C58.42,90.16 60.27,92.77 64,92.77 C67.73,92.77 69.58,90.16 69.98,89.23 C70.38,88.31 69.92,87.43 69.07,87.09 Z" fill="#DBA689"/>
  <path d="M32.45,68.38 C36.52,62.56 45.87,62.34 50.93,66.88 C51.91,67.76 53.18,69.05 52.54,70.49 C51.96,71.8 50.58,71.86 49.42,71.41 C46.18,70.16 43,69.44 39.52,70.07 C38.62,70.23 37.75,70.49 36.89,70.77 C36.2,70.99 35.58,71.39 34.89,71.6 C33,72.19 31.32,70.08 32.45,68.38 Z" fill="#454140"/>
  <path d="M93.01,71.54 C90.14,70.27 87.15,69.53 83.99,69.89 C82.29,70.08 80.65,70.55 79.07,71.2 C77.99,71.65 76.77,72.06 75.85,71.03 C73.44,68.35 79.17,65.22 81.05,64.51 C84.6,63.17 88.71,63.5 92.03,65.3 C93.42,66.05 94.99,67.15 95.71,68.6 C96.57,70.32 94.81,72.27 93.01,71.54 Z" fill="#454140"/>
  <path d="M48.88,80.3 A6.48 6.71 0 1 1 35.92,80.3 A6.48 6.71 0 1 1 48.88,80.3 Z" fill="#312D2D"/>
  <path d="M92.08,80.3 A6.48 6.71 0 1 1 79.12,80.3 A6.48 6.71 0 1 1 92.08,80.3 Z" fill="#312D2D"/>
  <path id="mouth_1_" d="M75.01,97.97 C70.82,100.46 57.1,100.46 52.91,97.97 C50.51,96.54 48.05,98.73 49.05,100.91 C50.03,103.06 57.52,108.04 64,108.04 C70.47,108.04 77.87,103.06 78.85,100.91 C79.84,98.72 77.42,96.54 75.01,97.97 Z" fill="#444444"/>
  <path id="hair_3_" d="M103.86,18.49 C97.89,12.27 92.23,9.64 91.68,9.57 C84.75,6.4 75.83,3.99 64.26,3.99 C13.41,3.99 9.88,45.62 11.93,63.87 C13.73,79.96 23.42,83.99 23.42,83.99 L22.04,68.17 C22.04,68.17 40.24,63.38 49.84,55.95 C59.44,48.52 63.87,42.16 63.87,42.16 C63.87,42.16 67.11,46.96 77.78,55.83 C88.45,64.7 106.04,68.42 106.04,68.42 L106.11,83.95 C106.11,83.95 114.57,80.01 115.99,63.88 C117.75,43.67 115.33,31.58 103.86,18.49 Z" fill="#312D2D"/>
  <path id="hairHighlights_1_" d="M103.86,18.49 C97.89,12.27 92.23,9.64 91.68,9.57 C84.75,6.4 75.83,3.99 64.26,3.99 C13.41,3.99 9.88,45.62 11.93,63.87 C13.73,79.96 23.42,83.99 23.42,83.99 L22.04,68.17 C22.04,68.17 40.24,63.38 49.84,55.95 C59.44,48.52 63.87,42.16 63.87,42.16 C63.87,42.16 67.11,46.96 77.78,55.83 C88.45,64.7 106.04,68.42 106.04,68.42 L106.11,83.95 C106.11,83.95 114.57,80.01 115.99,63.88 C117.75,43.67 115.33,31.58 103.86,18.49 Z" fill="url(#hairHighlights_2_)"/>
</svg>
